!!!OTL: Gefangen in maurischer Wueste
!!!OTL-incipit: Gefangen in maurischer Wueste, lag ein Krieger mit schwermuetigem Blick
!!!ARE: Europa, Mitteleuropa, Deutschland, Schleswig - Holstein
!!!SCT: D0228
!!!TXL: @@DE
!!!YEM: Copyright 1995, estate of Helmut Schaffrath.
**kern	**text
*ICvox	*
*M4/4	*
*met(c)	*
*k[b-e-]	*
*B-:	*
{4f	Gefanen
=1	=1
4f	.
8d	.
8e-	in
4f	maurischer
8b-	.
8cc	.
=2	=2
2dd	Wüste,
4dd}	.
{8ee-	lag
8dd	ein
=3	=3
4dd	Krieger
8cc	.
8cc	mit
4cc	schwermütigen
8ee-	.
8dd	.
=4	=4
2.b-}	Blick,
{8f	all'
8f	die
=5	=5
4b-	Vöglein,
8b-	.
8b-	die
4cc	hat
8cc	er
8cc	be-
=6	=6
4dd	-grüßet,
4dd	.
4r}	.
{8b-	die
8dd	aufs
=7	=7
4.ff	Neue
8ff	.
4ff	kehrten
8ff	.
8ee-	zurück.
=8	=8
2.dd}	.
=||	=||
{8.ee-	Teure
16dd	.
=9	=9
(8ddL	Schwalbe,
8ccJ)	.
4cc	.
8r	.
8cc	aus
8ee-	Frankreichs
8dd	.
=10	=10
(8ccL	Auen,
8b-J)	.
4.b-}	.
{8b-	die
8cc	ihr
8b-	den
=11	=11
4.a	Weg
8cc	durch
8cc	Sand
8cc	und
8ee-	Wüste
8ee-	.
=12	=12
2dd	fand't,
8r}	.
{8dd	euch
8dd	sei's
8dd	vergönnt
=13	=13
4.g	.
8dd	dies
4.dd	Land
8cc	zu
=14	=14
4cc	schauen
4.b-}	.
{8f	bringt
8b-	mir
8cc	kein
=15	=15
4.dd	Gruß
8dd	aus
8dd	meinem
8dd	.
8ee-	Heimatland,
8cc	.
=16	=16
2ff	.
8r}	.
{8ff	bringt,
8ee-	mir
8dd	kein
=17	=17
(8ddL	Gruß
8cc)	.
8ddJ	.
8cc	aus
8b-	meinem
8b-	.
8.dd	Heimat
16cc	.
=18	=18
2cc	Land.
4r}	.
==	==
!!!AGN: Soldaten - Lied
!! rhythmische Korrekturen in der ersten und vierten Zeile
!!    Inzipit = Variante zum Lied
!!!ONB: ESAC (Essen Associative Code) Database: DVA
!!!AMT: simple quadruple
!!!AIN: vox
!!!EED: Helmut Schaffrath
!!!EEV: 1.0
!!!YOR: https://freidok.uni-freiburg.de/data/150373
!!!EFL: A207190
!!!ENC: Anna Maria Matuszewska
!!!EEV: 2025/06/04
*-	*-
